X: 2745
T: Banks Of The Feale, The
R: jig
M: 6/8
K: Dmajor
|:DFA Baf|edB A2A|BAF dAF|EFE EFE|
DFA Baf|edB AFA|BdB Aaf|1 eBc d2d:|2 eBc d2A||
|:def aba|fed eBd|AFA Bdf|edB efe|
def aba|fed eBd|AFA Bdf|1 edB d2A:|2 edB d3||

